; Generated by Euclid.
; Estimated print time: 34min 41sec
; Config: {"wiping_tower":{"config":"WipingTowerConfig","tool_id":0,"offset_x":-0.2,"perimeter_insets":2,"enabled":1,"first_layer_extrusion_multiplier":0.85,"extrusion_multiplier":0.89,"offset_y":3},"compact_commands":false,"postamble":"T0\nG91\nG1 E-5 F200\nG1 Z4 F1500\nG90\nG28 Y\nG28 X\nT0\nM104 S0\nM140 S0\n","travel_rate":90,"absolute_extrusion":false,"bed_temp":30,"use_arc_commands":true,"skirt_outset":2,"simplify_resolution":0.01,"working_resolution":0.001,"volumes":{"Toothpaste_Squeezer.stl":{"config_patch":{"minimum_infill_length":0.4,"perimeter_insets":2,"alternate_perimeter_direction":1,"brim_perimeters":5,"volume_translation":[75,55,2.384185791015625e-7],"retraction_height":0.3,"solid_layers":3,"print_rate_multipliers":{"infill":1.66,"first_layer":0.8,"supports":1.66,"solid_infill":1.66,"base_rate":30,"inner_inset":1.5,"retraction":0.17,"outer_inset":1},"volume_scale":[1,1,1],"extrusion":{"infill_overlap_factor":0.15,"first_layer_width":0.4857901551,"first_layer_multiplier":0.85,"multiplier":0.89,"overlap_factor":0.8,"width":0.35},"min_print_height":0.15,"print_height":0.19,"infill_rotation":0,"retraction_length":0.5,"first_perimeter_insets":3,"infill_density":0.5,"first_layer_height_override":0.3,"use_singlepath":1,"infill_rotation_per_layer":60}}},"comments":true,"version":{"major":1,"patch":0,"minor":0},"build_center":[75,75],"config":"FFFConfig","tools":{"1":{"minimum_infill_length":0.3,"perimeter_insets":3,"inter_material_offsets":{"headroom":0.21,"offset":0.09,"point_deposition_offset":0.13},"component_pad_use_singlepath":false,"extrusion_preamble":"M400\nM42 P2 S255\nG4 S0.11\n","needs_solid_floor":true,"before_pressure_change_cmd":"","point_deposition_ml_per_second":0.00012,"export_e_values":false,"skirt_enabled":false,"minimum_rate_scale_factor":1,"midlayer_wipe_cmd":"T1\nM211 X1 S0\nG90\nG1 X150 Y180 F9000\nG1 X180 Y180 F9000\nG1 X178.5 Y176.2 F9000\nG2 X184.863 Y173.564 I0 J-9\nG3 X184.863 Y160.837 I-6.363 J-6.363\nG2 X184.863 Y173.564  I-6.363 J6.363\nG3 X172.136 Y160.837  I-6.363 J-6.363\nG91\nG1 X-3\nM211 X1 S1\nG90","retraction_ramp_ratio":0.08,"always_retract_between_parts":true,"infill_density":1,"after_first_layer_cmd":"","alternate_perimeter_direction":false,"minimum_retract_distance":1.5,"min_print_height":0.15,"after_pressure_change_cmd":";G4 S0.5","retraction_length":0,"retraction_wipe_distance":4,"activate_cmd":"T1\nM211 X1 S0\nG90\nG1 X150 Y180 F9000\nG1 X180 Y180 F9000\nM400\nM42 P75 S255\nG4 P500\nG1 X178.5 Y176.2 F9000\nG2 X184.863 Y173.564 I0 J-9\nG3 X184.863 Y160.837 I-6.363 J-6.363\nG2 X184.863 Y173.564  I-6.363 J6.363\nG3 X172.136 Y160.837  I-6.363 J-6.363\nG91\nG1 X-3\nG90","max_point_deposition_area":2,"brim_enabled":false,"midlayer_wipe_after_distance":240,"extrusion_postamble":"M400\nM42 P2 S0\n","minimum_stop_extrusion_distance":1.1,"retraction_height":2,"id":1,"dwell_minimum_layer_time":0,"config":"PneumaticTool","print_height":0.19,"first_perimeter_insets":3,"spread_component_pad_point_depositions":false,"infill_rotation_per_layer":60,"join_perimeters_with_holes":false,"deactivate_cmd":"G91\nG1 Z1\nT1\nG90\nM211 X1 S0\nG1 X155 Y157 F9000\nG1 X178.5 Y158.2 F9000\nG2 X184.863 Y173.564 I0 J9\nG3 X184.863 Y160.837 I-6.363 J-6.363\nG91\nG1 Y-5\nG1 X-15\nM400\nM42 P75 S0\nT0\nM211 X1 S1\n","brim_perimeters":0,"solid_layers":3,"minimum_layer_time":1,"print_rate_multipliers":{"infill":1.1,"first_layer":1,"supports":0.8,"solid_infill":1.1,"config":"RateMultiplierConfig","base_rate":14,"inner_inset":1,"retraction":1,"outer_inset":1},"extrusion":{"absolute":false,"infill_overlap_factor":0.35,"config":"PneumaticExtrusionConfig","first_layer_width":0.25,"first_layer_multiplier":1,"multiplier":1,"overlap_factor":0.35,"width":0.25},"pressure_multipliers":{"infill":1,"first_layer":1,"base_pressure":14,"solid_infill":1,"config":"PressureMultiplierConfig","inner_inset":1,"supports":1.25,"purge":1,"outer_inset":1},"fan_enabled_under_layer_time":0,"max_volumetric_flow":50,"infill_style":"rectilinear","nozzle_length":4,"after_layer_cmd":"","infill_rotation":0,"point_deposition_postamble":"","dynamic_slice_height":1,"use_singlepath":true},"0":{"minimum_infill_length":0.4,"perimeter_insets":2,"extrusion_preamble":"","needs_solid_floor":false,"export_e_values":true,"skirt_enabled":1,"minimum_rate_scale_factor":0.2,"retraction_ramp_ratio":0,"always_retract_between_parts":false,"infill_density":0.5,"first_layer_height_override":0.3,"after_first_layer_cmd":"M400\nM106 S255","alternate_perimeter_direction":true,"minimum_retract_distance":1.5,"min_print_height":0.15,"retraction_length":0.5,"retraction_wipe_distance":0,"activate_cmd":"T0; switch to tool zero coordinate system\nG91 ; relative coordinates\nG1 Z1 F2000 ; move Z1 at 2000 mm/min\nG90 ; absolute coordinates\nG1 X57 Y187.7 F9000\nG1 X-37.7 F9000\n;begin wiping\nG91\nG1 E7 F150\nG1 E-0.5 F250\nG90\nG4 S1\nG1 Y165 F6000\nG1 X-36 F6000\nG1 Y180 F6000\nG1 X-34 F6000\nG1 Y165 F6000\n;end wiping\nG91\nG1 Z-1 F2000\nG90\n\n","brim_enabled":1,"minimum_stop_extrusion_distance":0,"extrusion_postamble":"","retraction_height":0.3,"id":0,"dwell_minimum_layer_time":0,"config":"FFFTool","print_height":0.19,"component_offset":0.19,"first_perimeter_insets":3,"infill_rotation_per_layer":60,"first_layer_nozzle_temp":225,"join_perimeters_with_holes":false,"deactivate_cmd":"G91\nG1 E-1.5 F300\nG90\n","nozzle_temp":200,"brim_perimeters":5,"solid_layers":3,"minimum_layer_time":3,"print_rate_multipliers":{"infill":1.66,"first_layer":0.8,"supports":1.66,"solid_infill":1.66,"config":"RateMultiplierConfig","base_rate":30,"inner_inset":1.5,"retraction":0.17,"outer_inset":1},"extrusion":{"absolute":false,"infill_overlap_factor":0.15,"config":"VolumetricExtrusionConfig","first_layer_width":0.4857901551,"first_layer_multiplier":0.85,"multiplier":0.89,"overlap_factor":0.8,"width":0.35},"fan_enabled_under_layer_time":1,"max_volumetric_flow":50,"after_layer_cmd":"M106 S255","infill_rotation":0,"dynamic_slice_height":1,"filament_diameter":1.72,"use_singlepath":true}},"auto_alignment":false,"subtract_materials":0,"pause_cmd":"G91\nG1 Z5 F2000\nG90\nG1 X122 Y188 F6000\nG1 E-4.8 F200\nM0","translate_to_build_center":false,"output_style":"gcode","preamble":"G90\nT0\nM106 S0\nM125 S40\nG28\nG29\nG1 X57 Y188 F9000\nG1 X-38 F9000\nG91\nG1 Z1 F2000\n;begin wiping\nG1 E11 F150\nG1 E-0.5 F250\nG90\nG4 S1\nG1 Y165 F6000\nG1 X-36 F6000\nG1 Y180 F6000\nG1 X-34 F6000\nG1 Y165 F6000\nG91\n;end wiping\nG1 Z-1 F2000\nG1 E0.5 F250\nG90\nG92 E0\n\n","export_digits":3,"build_volume":{"y_min":0,"x_max":150,"y_max":150,"z_min":0,"x_min":0,"z_max":105}}
G90
M83
; set bed temperature
M140 S30.0
T0
M109 S225.0
; check bed temperature
M190 S30.0
; preamble
M106 S0
M125 S40
G28
G29
G1 X57.0 Y188.0 F9000.0
G1 X-38.0 F9000.0
G91
G1 Z1.0 F2000.0
; begin wiping
G1 E11.0 F150.0
G1 E-0.5 F250.0
G90
G4 P1000.0
G1 Y165.0 F6000.0
G1 X-36.0 F6000.0
G1 Y180.0 F6000.0
G1 X-34.0 F6000.0
G1 Y165.0 F6000.0
G91
; end wiping
G1 Z-1.0 F2000.0
G1 E0.5 F250.0
G90
G92 E0
M400
; Layer number 1
; skirt
; retract
G0 E-0.5 F306.0
G0 Z0.3 F5400.0
G0 Z0.6 F5400.0
G0 X37.305 Y69.187 F5400.0
; unretract
G0 Z0.3 F5400.0
G0 E0.5 F306.0
G3 X34.086 Y59.132 I6.717 J-7.693 E0.537 F1440.0
G3 X43.809 Y51.309 I9.921 J2.376 E0.65 F1440.0
G1 X106.0 Y51.306 E3.012 F1440.0
G1 X106.187 Y51.31 E0.009 F1440.0
G3 X112.864 Y69.031 I-0.186 J10.188 E1.177 F1440.0
G1 X112.695 Y69.187 E0.011 F1440.0
G1 X81.657 Y96.22 E1.993 F1440.0
G1 X81.528 Y96.328 E0.008 F1440.0
G3 X68.305 Y96.187 I-6.529 J-7.835 E0.697 F1440.0
G1 X37.305 Y69.187 E1.991 F1440.0
; brim
; retract
G0 E-0.5 F306.0
G0 Z0.6 F5400.0
G0 X38.619 Y67.679 F5400.0
; unretract
G0 Z0.3 F5400.0
G0 E0.5 F306.0
G3 X36.338 Y58.598 I5.385 J-6.179 E0.483 F1440.0
G3 X43.809 Y53.309 I7.672 J2.916 E0.47 F1440.0
G1 X106.0 Y53.306 E3.012 F1440.0
G1 X106.093 Y53.308 E0.005 F1440.0
G3 X111.381 Y67.679 I-0.095 J8.193 E0.958 F1440.0
G1 X80.343 Y94.712 E1.993 F1440.0
G1 X80.279 Y94.766 E0.004 F1440.0
G3 X69.619 Y94.679 I-5.279 J-6.275 E0.562 F1440.0
G1 X38.619 Y67.679 E1.991 F1440.0
G0 X38.904 Y67.352 Z0.3 F5400.0
G3 X37.523 Y65.765 I5.133 J-5.861 E0.102 F1440.0
G3 X43.809 Y53.743 I6.476 J-4.268 E0.8 F1440.0
G1 X106.0 Y53.74 E3.012 F1440.0
G1 X106.073 Y53.742 E0.004 F1440.0
G3 X111.162 Y67.291 I-0.073 J7.758 E0.903 F1440.0
G1 X111.096 Y67.352 E0.004 F1440.0
G1 X80.058 Y94.385 E1.993 F1440.0
G1 X80.008 Y94.427 E0.003 F1440.0
G3 X69.904 Y94.352 I-5.008 J-5.937 E0.533 F1440.0
G1 X38.904 Y67.352 E1.991 F1440.0
G0 X39.189 Y67.024 Z0.3 F5400.0
G3 X37.894 Y65.538 I4.92 J-5.595 E0.096 F1440.0
G3 X43.809 Y54.178 I6.107 J-4.04 E0.755 F1440.0
G1 X106.0 Y54.175 E3.012 F1440.0
G1 X106.052 Y54.176 E0.003 F1440.0
G3 X110.858 Y66.98 I-0.053 J7.324 E0.854 F1440.0
G1 X110.811 Y67.024 E0.003 F1440.0
G1 X79.773 Y94.057 E1.993 F1440.0
G1 X79.737 Y94.087 E0.002 F1440.0
G3 X70.189 Y94.024 I-4.737 J-5.599 E0.503 F1440.0
G1 X39.189 Y67.024 E1.991 F1440.0
; retract
G0 E-0.5 F306.0
G0 Z0.6 F5400.0
G0 X69.707 Y77.953 F5400.0
; unretract
G0 Z0.3 F5400.0
G0 E0.5 F306.0
G2 X80.147 Y77.611 I5.293 J2.047 E1.084 F1440.0
G2 X70.817 Y76.166 I-5.147 J2.389 E0.54 F1440.0
G1 X70.36 Y76.734 E0.035 F1440.0
G1 X70.171 Y77.019 E0.017 F1440.0
G2 X69.707 Y77.953 I5.51 J3.319 E0.051 F1440.0
G0 X70.112 Y78.111 Z0.3 F5400.0
G2 X77.893 Y75.631 I4.887 J1.888 E1.141 F1440.0
G2 X71.141 Y76.456 I-2.89 J4.388 E0.358 F1440.0
G2 X70.239 Y77.812 I4.002 J3.64 E0.079 F1440.0
G1 X70.112 Y78.111 E0.016 F1440.0
G0 X70.517 Y78.269 Z0.3 F5400.0
G2 X74.852 Y75.198 I4.48 J1.729 E1.188 F1440.0
G2 X71.469 Y76.742 I0.15 J4.807 E0.185 F1440.0
G2 X70.637 Y77.988 I3.616 J3.315 E0.073 F1440.0
G1 X70.517 Y78.269 E0.015 F1440.0
; retract
G0 E-0.5 F306.0
G0 X70.474 Y93.697 Z0.3 F5400.0
; unretract
G0 E0.5 F306.0
G1 X39.474 Y66.697 E1.901 F1440.0
G1 X39.446 Y66.67 E0.002 F1440.0
G3 X43.809 Y54.612 I4.557 J-5.17 E0.762 F1440.0
G1 X106.0 Y54.609 E2.876 F1440.0
G1 X106.032 Y54.61 E0.001 F1440.0
G3 X110.554 Y66.67 I-0.033 J6.89 E0.769 F1440.0
G1 X110.526 Y66.697 E0.002 F1440.0
G1 X79.488 Y93.73 E1.904 F1440.0
G1 X79.466 Y93.748 E0.001 F1440.0
G3 X70.474 Y93.697 I-4.466 J-5.261 E0.453 F1440.0
G0 X70.759 Y93.369 Z0.3 F5400.0
G1 X39.759 Y66.369 E1.901 F1440.0
G1 X39.749 Y66.36 E0.001 F1440.0
G3 X39.511 Y56.86 I4.258 J-4.86 E0.494 F1440.0
G3 X43.809 Y55.046 I4.54 J4.759 E0.221 F1440.0
G1 X106.0 Y55.043 E2.876 F1440.0
G1 X106.011 Y55.043 E0.001 F1440.0
G3 X110.251 Y66.36 I-0.014 J6.458 E0.723 F1440.0
G1 X110.241 Y66.369 E0.001 F1440.0
G1 X79.203 Y93.402 E1.904 F1440.0
G1 X79.195 Y93.409 E0.0 F1440.0
G3 X70.759 Y93.369 I-4.195 J-4.922 E0.425 F1440.0
G0 X71.072 Y92.997 Z0.3 F5400.0
G1 X40.086 Y66.009 E1.9 F1440.0
G3 X38.13 Y62.595 I4.026 J-4.574 E0.185 F1440.0
G3 X43.824 Y55.532 I5.872 J-1.093 E0.476 F1440.0
G1 X105.989 Y55.529 E2.875 F1440.0
G3 X110.414 Y65.52 I0.007 J5.972 E0.638 F1440.0
G1 X109.914 Y66.009 E0.032 F1440.0
G1 X78.891 Y93.029 E1.903 F1440.0
G1 X78.594 Y93.266 E0.018 F1440.0
G3 X71.072 Y92.997 I-3.595 J-4.769 E0.377 F1440.0
G0 X71.364 Y92.675 Z0.3 F5400.0
G1 X40.364 Y65.675 E1.901 F1440.0
G3 X43.835 Y55.966 I3.64 J-4.173 E0.613 F1440.0
G1 X105.989 Y55.963 E2.875 F1440.0
G3 X109.636 Y65.675 I0.008 J5.538 E0.621 F1440.0
G1 X78.604 Y92.703 E1.903 F1440.0
G1 X78.332 Y92.92 E0.016 F1440.0
G3 X71.364 Y92.675 I-3.333 J-4.421 E0.349 F1440.0
G0 X71.631 Y92.332 Z0.3 F5400.0
G1 X40.667 Y65.364 E1.899 F1440.0
G3 X39.136 Y59.959 I3.349 J-3.868 E0.275 F1440.0
G3 X43.847 Y56.4 I4.869 J1.547 E0.291 F1440.0
G1 X105.969 Y56.397 E2.873 F1440.0
G3 X109.782 Y64.924 I0.029 J5.103 E0.546 F1440.0
G1 X109.333 Y65.364 E0.029 F1440.0
G1 X78.33 Y92.366 E1.901 F1440.0
G1 X78.066 Y92.577 E0.016 F1440.0
G3 X71.631 Y92.332 I-3.067 J-4.08 E0.322 F1440.0
; retract
G0 E-0.5 F306.0
G0 X72.841 Y86.686 Z0.3 F5400.0
; unretract
G0 E0.5 F306.0
G2 X73.07 Y73.241 I2.158 J-6.688 E1.213 F1440.0
G2 X69.796 Y75.276 I2.032 J6.92 E0.18 F1440.0
G2 X69.02 Y76.306 I7.63 J6.555 E0.06 F1440.0
G2 X69.267 Y84.067 I5.996 J3.694 E0.38 F1440.0
G2 X72.841 Y86.686 I5.734 J-4.077 E0.208 F1440.0
G0 X72.725 Y87.105 Z0.3 F5400.0
G2 X72.939 Y72.827 I2.275 J-7.107 E1.288 F1440.0
G2 X69.458 Y75.004 I2.16 J7.325 E0.192 F1440.0
G2 X68.644 Y76.089 I7.536 J6.501 E0.063 F1440.0
G2 X68.921 Y84.329 I6.37 J3.911 E0.404 F1440.0
G2 X72.725 Y87.105 I6.075 J-4.331 E0.222 F1440.0
G0 X72.61 Y87.523 Z0.3 F5400.0
G2 X72.409 Y72.54 I2.39 J-7.525 E1.382 F1440.0
G2 X68.268 Y75.872 I2.677 J7.566 E0.251 F1440.0
G2 X72.61 Y87.523 I6.731 J4.126 E0.662 F1440.0
; retract
G0 E-0.5 F306.0
G0 X44.968 Y63.029 Z0.3 F5400.0
; unretract
G0 E0.5 F306.0
G1 X105.0 Y63.029 E2.776 F1440.0
G1 X105.025 Y63.028 E0.001 F1440.0
G2 X105.032 Y60.471 I-0.026 J-1.279 E0.183 F1440.0
G1 X44.968 Y60.471 E2.778 F1440.0
G1 X44.931 Y60.474 E0.002 F1440.0
G2 X44.968 Y63.029 I0.07 J1.277 E0.181 F1440.0
G0 X44.968 Y63.463 Z0.3 F5400.0
G1 X105.0 Y63.463 E2.776 F1440.0
G1 X105.07 Y63.459 E0.003 F1440.0
G2 X105.032 Y60.037 I-0.072 J-1.71 E0.244 F1440.0
G1 X44.968 Y60.037 E2.778 F1440.0
G1 X44.864 Y60.045 E0.005 F1440.0
G2 X44.968 Y63.463 I0.137 J1.706 E0.241 F1440.0
G0 X44.968 Y63.897 Z0.3 F5400.0
G1 X105.0 Y63.897 E2.776 F1440.0
G1 X105.114 Y63.891 E0.005 F1440.0
G2 X105.032 Y59.603 I-0.116 J-2.143 E0.305 F1440.0
G1 X44.968 Y59.603 E2.778 F1440.0
G1 X44.798 Y59.616 E0.008 F1440.0
G2 X44.968 Y63.897 I0.203 J2.136 E0.301 F1440.0
; retract
G0 E-0.5 F306.0
G0 X42.805 Y56.924 Z0.3 F5400.0
; unretract
G0 E0.5 F306.0
G1 X40.635 Y58.177 E0.116 F1440.0
G1 X39.934 Y59.083 E0.053 F1440.0
G1 X43.941 Y56.77 E0.214 F1440.0
G1 X44.809 Y56.77 E0.04 F1440.0
G1 X39.591 Y59.783 E0.279 F1440.0
G1 X39.401 Y60.394 E0.03 F1440.0
G1 X45.678 Y56.77 E0.335 F1440.0
G1 X46.547 Y56.77 E0.04 F1440.0
G1 X39.301 Y60.953 E0.387 F1440.0
G1 X39.268 Y61.474 E0.024 F1440.0
G1 X47.415 Y56.77 E0.435 F1440.0
G1 X48.284 Y56.77 E0.04 F1440.0
G1 X39.293 Y61.961 E0.48 F1440.0
G1 X39.361 Y62.423 E0.022 F1440.0
G1 X42.892 Y60.384 E0.189 F1440.0
G1 X42.582 Y61.065 E0.035 F1440.0
G1 X39.469 Y62.862 E0.166 F1440.0
G1 X39.622 Y63.275 E0.02 F1440.0
G1 X42.489 Y61.62 E0.153 F1440.0
G1 X42.513 Y62.108 E0.023 F1440.0
G1 X39.802 Y63.673 E0.145 F1440.0
G1 X40.021 Y64.048 E0.02 F1440.0
G1 X42.617 Y62.549 E0.139 F1440.0
G1 X42.79 Y62.95 E0.02 F1440.0
G1 X40.27 Y64.405 E0.135 F1440.0
G1 X40.559 Y64.74 E0.02 F1440.0
G1 X43.031 Y63.313 E0.132 F1440.0
G1 X43.339 Y63.637 E0.021 F1440.0
G1 X40.881 Y65.055 E0.131 F1440.0
G1 X41.224 Y65.359 E0.021 F1440.0
G1 X43.724 Y63.916 E0.133 F1440.0
G1 X44.211 Y64.136 E0.025 F1440.0
G1 X41.571 Y65.66 E0.141 F1440.0
G1 X41.917 Y65.962 E0.021 F1440.0
G1 X44.866 Y64.259 E0.157 F1440.0
G1 X45.721 Y64.267 E0.04 F1440.0
G1 X42.263 Y66.264 E0.185 F1440.0
G1 X42.609 Y66.565 E0.021 F1440.0
G1 X46.59 Y64.267 E0.213 F1440.0
G1 X47.458 Y64.267 E0.04 F1440.0
G1 X42.956 Y66.867 E0.24 F1440.0
G1 X43.302 Y67.168 E0.021 F1440.0
G1 X48.327 Y64.267 E0.268 F1440.0
G1 X49.195 Y64.267 E0.04 F1440.0
G1 X43.648 Y67.47 E0.296 F1440.0
G1 X43.994 Y67.771 E0.021 F1440.0
G1 X50.064 Y64.267 E0.324 F1440.0
G1 X50.933 Y64.267 E0.04 F1440.0
G1 X44.341 Y68.073 E0.352 F1440.0
G1 X44.687 Y68.374 E0.021 F1440.0
G1 X51.801 Y64.267 E0.38 F1440.0
G1 X52.67 Y64.267 E0.04 F1440.0
G1 X45.033 Y68.676 E0.408 F1440.0
G1 X45.379 Y68.978 E0.021 F1440.0
G1 X53.538 Y64.267 E0.436 F1440.0
G1 X54.407 Y64.267 E0.04 F1440.0
G1 X45.726 Y69.279 E0.464 F1440.0
G1 X46.072 Y69.581 E0.021 F1440.0
G1 X55.275 Y64.267 E0.492 F1440.0
G1 X56.144 Y64.267 E0.04 F1440.0
G1 X46.418 Y69.882 E0.519 F1440.0
G1 X46.764 Y70.184 E0.021 F1440.0
G1 X57.013 Y64.267 E0.547 F1440.0
G1 X57.881 Y64.267 E0.04 F1440.0
G1 X47.111 Y70.485 E0.575 F1440.0
G1 X47.457 Y70.787 E0.021 F1440.0
G1 X58.75 Y64.267 E0.603 F1440.0
G1 X59.618 Y64.267 E0.04 F1440.0
G1 X47.803 Y71.089 E0.631 F1440.0
G1 X48.149 Y71.39 E0.021 F1440.0
G1 X60.487 Y64.267 E0.659 F1440.0
G1 X61.355 Y64.267 E0.04 F1440.0
G1 X48.496 Y71.692 E0.687 F1440.0
G1 X48.842 Y71.993 E0.021 F1440.0
G1 X62.224 Y64.267 E0.715 F1440.0
G1 X63.093 Y64.267 E0.04 F1440.0
